assets/img/ornament-svg-white.svg

<svg
                    viewBox="0 0 38 5"
                    fill="none"
                    xmlns="http://www.w3.org/2000/svg"
                  >
                    <path
                      d="M16.4361 3.63868C16.149 3.71457 15.9404 2.86184 16.1035 2.53779C16.1669 2.41105 16.2556 2.27724 16.3589 2.18022C16.5914 1.96275 17.025 1.91158 17.3392 1.90758C17.5028 1.90579 17.8951 1.95191 18.0935 2.12528C18.1877 2.20792 18.2741 2.30972 18.3503 2.40848C18.4863 2.58488 18.4597 2.52769 18.6682 2.51662C18.8777 2.50555 18.5166 1.97281 18.4583 1.91337C18.28 1.73394 18.0908 1.54725 17.839 1.46355C17.3172 1.28968 16.7659 1.28743 16.2464 1.10451C16.014 1.02311 15.7788 0.942212 15.5757 0.799347C15.3575 0.645365 15.3428 0.381823 15.578 0.238912C15.7144 0.156271 15.4999 0.107622 15.4503 0.0912685C15.3391 0.0539674 15.2716 0.266658 15.2413 0.33492C15.1333 0.576321 15.233 0.816711 15.4301 0.978226C15.4659 1.00772 15.6749 1.07906 15.668 1.13349C15.6579 1.21131 15.4848 1.18389 15.5541 1.31063C15.6855 1.55203 15.9699 1.54091 16.1968 1.55782C16.4494 1.57647 16.714 1.4981 16.9717 1.51247C17.1091 1.52001 17.2391 1.51293 17.3728 1.54243C17.4297 1.55478 17.5023 1.55653 17.551 1.59181C17.6071 1.63191 17.6094 1.73091 17.5212 1.72916C17.0025 1.7191 16.358 1.49281 15.8734 1.77882C15.7494 1.85186 15.6639 1.96578 15.5936 2.08747C15.5128 2.22735 15.6299 2.30039 15.7696 2.23691C15.8003 2.22303 16.0456 2.01416 16.0383 2.14898C16.0342 2.2195 15.9207 2.27168 15.8734 2.30646C15.7976 2.36213 15.7314 2.42892 15.6708 2.49971C15.5844 2.59976 15.5178 2.7051 15.516 2.8374C15.5142 2.96942 15.5206 3.23806 15.7025 3.16323C15.7843 3.12942 15.8297 3.42604 15.8633 3.48677C15.9354 3.61626 16.0475 3.77907 16.2119 3.80171C16.324 3.8171 16.4458 3.83222 16.5523 3.76749C16.5836 3.74856 16.669 3.67727 16.6327 3.63239C16.5905 3.58002 16.4876 3.62509 16.4361 3.63868Z"
                      fill="white"
                    />
                    <path
                      d="M22.0221 2.34794C21.9994 2.32728 21.7879 2.16549 21.9067 2.14531C21.9477 2.13826 21.9912 2.16023 22.0356 2.18239C22.0983 2.21309 22.1635 2.24385 22.2272 2.19397C22.3701 2.08283 21.897 1.77819 21.828 1.74898C21.5393 1.62828 21.2337 1.63909 20.9286 1.64363C20.7963 1.64411 20.6471 1.6726 20.5255 1.69756C20.4926 1.70437 20.1996 1.77592 20.2749 1.62953C20.3686 1.44834 20.848 1.50806 21.0068 1.50985C21.1511 1.51159 21.295 1.50956 21.4374 1.53428C21.6527 1.57155 21.9656 1.56074 22.0761 1.49343C22.1297 1.46118 22.3716 1.29891 22.2741 1.22205C22.262 1.21273 22.0119 1.14746 22.0906 1.10768C22.1862 1.05901 22.2784 1.04443 22.3605 0.970079C22.5575 0.79294 22.6965 0.464589 22.4653 0.26302C22.4373 0.23859 22.2528 0.14961 22.2649 0.252929C22.2765 0.357021 22.3943 0.398832 22.3769 0.528849C22.36 0.659398 22.2635 0.760689 22.1626 0.836537C22.0737 0.903791 21.4519 1.1984 21.1 1.23292C20.8426 1.2586 20.5704 1.27246 20.3217 1.35236C19.8071 1.51791 19.3765 1.79682 19.1264 2.29198C19.0511 2.44015 19.0733 2.49181 19.236 2.53918C19.388 2.58354 19.402 2.4893 19.4836 2.38598C19.669 2.15289 19.9104 2.01051 20.1981 1.93592C20.7157 1.80213 21.4143 1.98656 21.6986 2.47014C21.8265 2.68913 21.8825 2.98267 21.8082 3.2261C21.7725 3.34202 21.6976 3.47378 21.5909 3.54185C21.5422 3.57309 21.2438 3.56527 21.364 3.67839C21.5436 3.84722 21.8801 3.61693 21.9777 3.46649C22.0057 3.42265 22.0496 3.21249 22.0829 3.19583C22.1037 3.18526 22.1249 3.19409 22.1457 3.20293C22.1669 3.21171 22.1886 3.22079 22.2113 3.20945C22.263 3.18376 22.2606 3.08146 22.2852 3.03583C22.402 2.81862 22.1722 2.48452 22.0221 2.34794Z"
                      fill="white"
                    />
                    <path
                      d="M24.2458 2.90202C24.2029 2.80245 24.1156 2.7382 24.0169 2.6959C23.9765 2.67849 23.7849 2.58501 23.8348 2.51292C23.8967 2.42323 24.0683 2.60391 24.1132 2.63818C24.3496 2.82011 24.5815 2.8675 24.8758 2.79542C25.0509 2.75257 25.0185 2.69485 24.9058 2.59533C24.822 2.52101 25.0395 2.44768 25.0873 2.40533C25.1736 2.32925 25.232 2.25996 25.2694 2.15461C25.3113 2.03593 25.2764 2.0266 25.1871 2.11555C24.792 2.50918 24.2094 2.33279 23.7415 2.22998C23.4363 2.16319 23.1385 2.06517 22.8422 1.97019C22.7085 1.92734 22.5788 1.87291 22.4456 1.82956C22.4092 1.81769 22.1308 1.7061 22.1378 1.78826C22.1443 1.86179 22.2915 2.02386 22.3364 2.09315C22.4102 2.20803 22.5099 2.25188 22.6242 2.32746C22.8676 2.48848 23.0646 2.66642 23.2507 2.89165C23.3973 3.06908 23.5056 3.32205 23.3539 3.5337C23.2761 3.64285 23.4607 3.60349 23.5056 3.57631C23.5919 3.52413 23.6802 3.3868 23.6587 3.28578C23.6647 3.31372 23.6632 3.29356 23.6612 3.27366C23.6582 3.24946 23.6542 3.22532 23.6587 3.28578C23.6373 3.01336 23.4906 2.81507 23.2986 2.6291C23.2587 2.59029 23.1923 2.5447 23.1699 2.49177C23.1534 2.45271 23.1943 2.37205 23.2447 2.4159C23.339 2.49756 23.4053 2.57338 23.4782 2.67295C23.5245 2.73571 23.6243 2.81911 23.6877 2.867C23.7665 2.92646 23.8677 3.02219 23.9745 3.01616C24.0328 3.01311 24.2892 3.00254 24.2458 2.90202Z"
                      fill="white"
                    />
                    <path
                      d="M15.4178 1.84664C14.9639 2.05376 14.47 2.13997 13.9853 2.26141C13.8455 2.29669 13.6977 2.33953 13.553 2.35285C13.4211 2.36521 13.2984 2.35818 13.1669 2.36548C13.0244 2.37353 12.8744 2.32088 12.7495 2.25635C12.6919 2.22688 12.5876 2.07923 12.523 2.08855C12.3677 2.11121 12.7913 2.47029 12.8625 2.49624C12.9342 2.52294 12.7983 2.67213 12.8238 2.7364C12.8405 2.77897 13.1374 2.86364 13.1827 2.86087C13.473 2.89439 13.6423 2.59934 13.8908 2.54414C14.0337 2.51238 13.7967 2.717 13.7694 2.73011C13.6863 2.77092 13.5174 2.81904 13.5125 2.93296C13.5081 3.0438 13.7439 3.00905 13.8099 3.01583C13.929 3.02845 14.0496 2.87653 14.1248 2.80695C14.2303 2.70996 14.3209 2.60334 14.437 2.51766C14.4815 2.48467 14.547 2.41513 14.6086 2.41562C14.6825 2.4161 14.6077 2.49549 14.5954 2.50557C14.397 2.66989 14.2259 2.87851 14.149 3.12218C14.0891 3.31166 14.1947 3.60323 14.4348 3.60147C14.5699 3.60046 14.4102 3.4185 14.3948 3.37746C14.3482 3.25374 14.3939 3.1557 14.4441 3.04332C14.54 2.82938 14.7484 2.69158 14.9063 2.53482C14.9969 2.44535 15.0866 2.35136 15.2036 2.29568C15.2815 2.25864 15.4438 2.20999 15.4702 2.12132C15.5027 2.0147 15.5893 1.94794 15.6382 1.85447C15.694 1.74737 15.449 1.83278 15.4178 1.84664Z"
                      fill="white"
                    />
                    <path
                      d="M13.5799 3.05052C13.3594 3.06485 13.1759 3.19868 12.9773 3.28258C12.5423 3.4663 11.9748 3.55449 11.5107 3.45467C11.3022 3.41011 11.1148 3.21833 11.1294 3.00338C11.1349 2.92626 11.2405 2.79196 11.0835 2.79397C10.9651 2.79552 10.9196 2.9016 10.8973 2.99884C10.878 3.083 10.8823 3.19589 10.926 3.274C10.9724 3.35717 10.7519 3.32492 10.8042 3.4159C10.8553 3.50383 11.0028 3.58396 11.0933 3.62629C11.1997 3.67644 11.041 3.6845 11.0067 3.68274C10.8004 3.69784 10.5186 3.55046 10.3341 3.47308C10.2183 3.42469 10.1102 3.36044 10.0081 3.28837C9.8627 3.18556 9.82538 3.13893 9.6538 3.20597C9.6152 3.22137 9.5071 3.22137 9.57058 3.2924C9.6508 3.38261 9.76104 3.44687 9.86999 3.4998C10.0274 3.57667 10.1844 3.64568 10.3474 3.70213H0.291237C0.243196 3.70213 0.20459 3.74069 0.20459 3.78856V3.79032C0.20459 3.83798 0.243196 3.87675 0.291237 3.87675H11.4048L11.4043 3.8765C12.0773 3.87903 12.7366 3.68776 13.341 3.37253C13.4135 3.33551 13.9175 3.02835 13.5799 3.05052Z"
                      fill="white"
                    />
                    <path
                      d="M20.1603 2.67598C20.0426 2.68125 19.8901 2.76847 19.8586 2.86647C19.82 2.98669 19.8397 3.10738 19.9372 3.19635C20.0713 3.31878 20.1193 3.22657 20.2323 3.14767C20.3264 3.08192 20.3001 3.4221 20.2676 3.47124C20.0944 3.73131 19.7013 3.64987 19.5102 3.47453C19.4072 3.38002 19.3601 3.25024 19.322 3.12099C19.2895 3.01009 19.0706 2.89293 18.9755 3.00505C18.9139 3.07711 19.0132 3.32433 19.0508 3.39819C19.1238 3.54434 19.2113 3.67181 19.3285 3.7885C19.5884 4.04654 19.9155 4.03844 20.2426 3.93818C20.526 3.85148 20.7251 3.537 20.7171 3.25603C20.7105 3.01136 20.5119 2.66642 20.1603 2.67598Z"
                      fill="white"
                    />
                    <path
                      d="M18.6292 2.97945C18.4891 3.03212 18.5181 3.19415 18.4552 3.30728C18.3027 3.58346 18.0134 3.71702 17.7168 3.58043C17.603 3.52776 17.4758 3.4217 17.49 3.28561C17.5134 3.05631 17.58 3.24103 17.7393 3.24479C18.1241 3.25333 18.024 2.67784 17.6626 2.67532C17.4087 2.64781 17.1814 2.91191 17.1544 3.13896C17.1208 3.42294 17.2508 3.7223 17.5148 3.87676C17.7683 4.0252 18.0506 4.02543 18.3105 3.89618C18.6177 3.74324 18.7513 3.47184 18.8133 3.15508C18.8404 3.01522 18.7871 2.91972 18.6292 2.97945Z"
                      fill="white"
                    />
                    <path
                      d="M24.7814 1.47825C24.8496 1.49038 24.8797 1.59268 24.9539 1.58686C25.023 1.5816 25.0506 1.47249 25.1233 1.45259C25.188 1.43495 25.2697 1.44628 25.3224 1.48938C25.4667 1.60681 25.4843 1.88171 25.4041 2.04249C25.3865 2.07828 25.2692 2.32015 25.3008 2.34335C25.36 2.38666 25.4687 2.18533 25.4883 2.15561C25.5951 1.99132 25.6934 1.75015 25.6608 1.55058C25.6462 1.36664 25.5424 1.15399 25.4051 1.05495C25.2918 0.973563 25.0246 0.882848 24.8536 0.956172C24.7027 1.02092 24.5122 1.13103 24.5909 1.33692C24.634 1.45004 24.6766 1.45961 24.7814 1.47825Z"
                      fill="white"
                    />
                    <path
                      d="M12.3909 2.22941C12.4773 2.28889 12.3909 2.04798 12.3905 2.04722C12.3671 1.95451 12.3471 1.83933 12.3483 1.7436C12.3505 1.59566 12.5224 1.36131 12.693 1.45632C12.7836 1.50674 12.7636 1.76675 12.9393 1.59868C13.0635 1.48002 13.2137 1.46364 13.2793 1.27541C13.352 1.06497 13.0618 0.947333 12.918 0.923379C12.4509 0.846028 12.2301 1.3568 12.1888 1.72394C12.1888 1.72343 12.1884 1.72594 12.1875 1.73377C12.185 1.76449 12.1862 1.75441 12.1875 1.74156C12.1803 1.88039 12.273 2.14852 12.3909 2.22941Z"
                      fill="white"
                    />
                    <path
                      d="M19.5195 2.87876C19.578 2.54662 18.4105 2.46019 18.3076 2.8649C18.2594 3.0544 18.4166 2.95967 18.4921 2.91228C18.5955 2.84751 18.7281 2.8329 18.8482 2.8329C18.9831 2.8329 19.1306 2.83944 19.2571 2.89137C19.3823 2.94326 19.5061 3.10026 19.5195 2.87876Z"
                      fill="white"
                    />
                    <path
                      d="M37.2911 3.70276H27.4062C27.5592 3.65263 27.7081 3.59139 27.8496 3.51577C27.9831 3.44496 28.3022 3.28697 28.053 3.17887C27.9338 3.12696 27.8823 3.16959 27.7964 3.24744C27.7099 3.32604 27.6136 3.36281 27.5157 3.42228C27.3524 3.52156 27.0287 3.64759 26.8339 3.62439C26.7652 3.61608 27.0717 3.44422 26.9955 3.36912C26.9067 3.2817 26.9571 3.26634 26.9668 3.14988C26.9772 3.02591 26.9726 2.91758 26.8517 2.85359C26.7961 2.82437 26.6563 2.8163 26.7136 2.92113C26.7703 3.02545 26.7881 3.06905 26.7314 3.18494C26.6357 3.37994 26.3888 3.51955 26.166 3.50569C26.0588 3.50672 25.2643 3.43139 24.8077 3.27539C24.5871 3.20006 24.4164 3.07959 24.1718 3.09672C24.0234 3.10709 24.181 3.20585 24.2205 3.22475C24.3631 3.29201 24.5069 3.35703 24.6467 3.42961C24.999 3.61253 25.392 3.75317 25.7856 3.82953C25.9523 3.86201 26.1494 3.88922 26.3258 3.87714L26.3252 3.87737H37.2911C37.3387 3.87737 37.3776 3.83858 37.3776 3.79098V3.7892C37.3776 3.74131 37.3387 3.70276 37.2911 3.70276Z"
                      fill="white"
                    />
                  </svg>

<svg xmlns="http://www.w3.org/2000/svg" viewBox="0 0 38 5" fill="#fff" xmlns:v="https://vecta.io/nano"><path d="M16.436 3.64c-.287.076-.496-.777-.333-1.1.063-.127.152-.26.255-.358.233-.217.666-.27.98-.273.164-.002.556.044.754.218a2.02 2.02 0 0 1 .257.283c.136.176.1.12.318.108s-.152-.544-.2-.603c-.178-.18-.367-.366-.62-.45-.522-.174-1.073-.176-1.593-.36-.232-.08-.468-.162-.67-.305-.218-.154-.233-.418.002-.56.136-.083-.078-.13-.128-.148-.1-.037-.18.175-.2.244-.108.24-.008.482.2.643.036.03.245.1.238.155-.01.078-.183.05-.114.177.13.24.416.23.643.247.253.02.517-.06.775-.045.137.008.267 0 .4.03.057.012.13.014.178.05.056.04.058.14-.03.137-.52-.01-1.163-.236-1.648.05-.124.073-.2.187-.28.31-.08.14.036.213.176.15.03-.014.276-.223.27-.088-.004.07-.118.123-.165.157-.076.056-.142.122-.203.193-.086.1-.153.205-.155.338s.005.4.187.326c.082-.034.127.263.16.324.072.13.184.292.35.315.112.015.234.03.34-.034.03-.02.117-.09.08-.135-.042-.052-.145-.007-.197.006zm5.586-1.292c-.023-.02-.234-.182-.115-.203.04-.007.084.015.13.037.063.03.128.06.192.012.143-.1-.33-.416-.4-.445-.3-.12-.594-.1-.9-.105a2.15 2.15 0 0 0-.403.054c-.033.007-.326.078-.25-.068.094-.18.573-.12.732-.12.144.002.288 0 .43.024.215.037.528.026.64-.04.054-.032.296-.195.198-.27-.012-.01-.262-.075-.184-.114.096-.05.188-.063.27-.138.197-.177.336-.505.105-.707-.028-.024-.212-.113-.2-.01s.13.146.112.276-.113.232-.214.308c-.1.067-.7.362-1.063.396-.257.026-.53.04-.778.12-.515.166-.945.444-1.195.94-.075.148-.053.2.1.247s.166-.05.248-.153c.185-.233.427-.375.715-.45.518-.134 1.216.05 1.5.534.128.22.184.513.1.756-.036.116-.1.248-.217.316-.05.03-.347.023-.227.137.18.17.516-.06.614-.212.028-.044.072-.254.105-.27.02-.01.042-.002.063.007s.043.018.066.007c.052-.026.05-.128.074-.174.117-.217-.113-.55-.263-.688z"/><path d="M24.246 2.902c-.043-.1-.13-.164-.23-.206-.04-.017-.232-.1-.182-.183.062-.09.233.09.278.125a.82.82 0 0 0 .763.157c.175-.043.143-.1.03-.2-.084-.074.134-.148.18-.19.086-.076.145-.145.182-.25.042-.12.007-.128-.082-.04-.395.394-.978.217-1.446.114-.305-.067-.603-.165-.9-.26l-.397-.14c-.036-.012-.315-.123-.308-.04.007.074.154.236.2.305.074.115.173.16.288.234a2.77 2.77 0 0 1 .627.564c.147.177.255.43.103.642-.078.1.107.07.152.043.086-.052.175-.19.153-.29.006.028.005.008.003-.012s-.007-.048-.003.012c-.02-.272-.168-.47-.36-.657-.04-.04-.106-.084-.13-.137-.016-.04.024-.12.075-.076.094.082.16.157.233.257a1.21 1.21 0 0 0 .209.194c.08.06.18.155.287.15.058-.003.315-.014.27-.114zm-8.828-1.055c-.454.207-.948.293-1.432.415-.14.035-.288.078-.432.09-.132.012-.255.005-.386.013-.143.008-.293-.045-.417-.1-.058-.03-.162-.177-.226-.168-.155.023.268.382.34.408s-.064.176-.04.24c.017.043.314.127.36.124.3.034.46-.262.708-.317.143-.032-.094.173-.12.186-.083.04-.252.09-.257.203s.23.076.297.083c.12.013.24-.14.315-.2.105-.097.196-.204.312-.29.045-.033.1-.103.172-.102s-.001.08-.013.09c-.198.164-.37.373-.446.617-.06.19.046.48.286.48.135-.001-.025-.183-.04-.224-.047-.124-.001-.222.05-.334.096-.214.304-.352.462-.51.1-.09.18-.183.297-.24.078-.037.24-.086.267-.174.033-.107.12-.173.168-.267.056-.107-.2-.022-.22-.008z"/><path d="M13.58 3.05c-.22.014-.404.148-.603.232-.435.184-1.002.272-1.467.172-.2-.045-.396-.236-.38-.45.005-.077.1-.2-.046-.2-.118.002-.164.108-.186.205-.02.084-.015.197.03.275.046.083-.174.05-.122.142s.2.168.3.2c.106.05-.052.058-.087.056-.206.015-.488-.132-.673-.2a1.69 1.69 0 0 1-.326-.185c-.145-.103-.183-.15-.354-.082-.04.015-.147.015-.083.086a.95.95 0 0 0 .299.207 4.13 4.13 0 0 0 .477.202H.3c-.048 0-.087.04-.087.086V3.8c0 .048.04.086.087.086h11.113c.673.003 1.332-.19 1.937-.504.073-.037.577-.344.24-.322zm6.58-.374c-.118.005-.27.092-.302.19a.3.3 0 0 0 .079.33c.134.122.182.03.295-.05.094-.066.068.274.035.324-.173.26-.566.18-.757.003-.103-.095-.15-.224-.188-.354-.032-.1-.25-.228-.346-.116-.062.072.038.32.075.393a1.45 1.45 0 0 0 .278.39c.26.258.587.25.914.15.283-.087.483-.4.474-.682-.007-.245-.205-.59-.557-.58zm-1.53.304c-.14.053-.1.215-.174.328-.152.276-.442.4-.738.273-.114-.053-.24-.16-.227-.295.023-.23.1-.045.25-.04.385.01.285-.567-.077-.57-.254-.028-.48.237-.508.464-.034.284.096.583.36.738a.81.81 0 0 0 .796.02c.307-.153.44-.424.503-.74.027-.14-.026-.235-.184-.176zm6.15-1.502c.068.012.098.114.172.1s.097-.114.17-.134c.065-.018.146-.006.2.037.144.117.162.392.082.553-.018.036-.135.278-.103.3.06.043.168-.158.188-.188.107-.164.205-.405.172-.605-.015-.184-.118-.397-.256-.496-.113-.08-.38-.172-.552-.1-.15.065-.34.175-.263.38.043.113.086.123.2.14z"/><path d="M12.4 2.23c.086.06 0-.18 0-.182a1.27 1.27 0 0 1-.042-.304c.002-.148.174-.382.345-.287.1.05.07.31.246.142.124-.12.274-.135.34-.323.073-.2-.217-.328-.36-.352-.467-.077-.688.433-.73.8l-.001.018c-.007.14.085.407.203.488zm7.13.65c.058-.332-1.1-.42-1.212-.014-.048.19.1.095.184.047.103-.065.236-.08.356-.08a1.12 1.12 0 0 1 .41.058c.128.05.25.2.262-.013zm17.77.823h-9.885c.153-.05.302-.1.443-.187.134-.07.453-.23.203-.337-.12-.052-.17-.01-.257.07s-.183.115-.28.175c-.163.1-.487.225-.682.202-.07-.008.238-.18.162-.255-.1-.087-.038-.103-.03-.22.01-.124.006-.232-.115-.296-.056-.03-.195-.037-.138.068s.075.148.018.264a.62.62 0 0 1-.565.32c-.107.001-.902-.074-1.358-.23-.22-.075-.4-.196-.636-.18-.148.01.01.1.05.128l.426.205c.352.183.745.324 1.14.4.167.032.364.06.54.048h-.001H37.3c.048 0 .087-.04.087-.086h0c0-.048-.04-.086-.087-.086z"/></svg>
